X: 1
T: Bob and Joan
O: Trad
R: jig
Z: 2009 John Chambers <jc:trillian.mit.edu>
F: http://i80.photobucket.com/albums/j199/piperdave/Bobandjoan.jpg
S: Dave Rowlands <daverowlands:ntlworld.com> 2009-1-23
M: 6/8
L: 1/8
K: Em
|: E2B B2A | B2G E2D | E2E FGA | B2G E3 :|
|: FAF D2D | FAF D2D | E2E FGA | B2G E3 :|
